X:1
T: Glenlivet
C:
R:Reel
Q: 232
K:Am
M:4/4
L:1/8
|:A2 ae cB Ac|BA GB gd BG|A2 ae cB Ac|BG dB cA AB|
A2 ae cB Ac|BA GB gd BG|A2 ae cB Ac|BG dB cA AB|
AB cd ec BA|BG Bd gd BG|AB cd ec BA|BG dB cA AB|
AB cd ec BA|BG Bd gd BG|Ac Bd ce df|ed cB cA A2:|
